qtOfs/res/icons/editcopy.svg

<svg xmlns="http://www.w3.org/2000/svg" viewBox="0 0 160 160" xmlns:xlink="http://www.w3.org/1999/xlink">
<defs>
<linearGradient id="2" y1="119.147" x1="255.848" y2="34.101" x2="375.686" gradientUnits="userSpaceOnUse">
<stop offset="0" stop-color="#fff"/>
<stop offset="1"/>
</linearGradient>
<linearGradient gradientTransform="translate(-2.65767 -.20124)" xlink:href="#linearGradient67" id="linearGradient89" y1="1.147" x1="2.696" y2=".623" x2="3.851" gradientUnits="objectBoundingBox"/>
<linearGradient id="linearGradient67">
<stop offset="0" stop-color="#d7ffff" stop-opacity=".898"/>
<stop offset="1" stop-color="#2ea6b9" stop-opacity=".953"/>
</linearGradient>
<radialGradient cx="0" cy="0" gradientTransform="matrix(.94588 0 0 1.05722 .26437 .25)" r=".773" id="radialGradient88" gradientUnits="objectBoundingBox">
<stop offset="0" stop-color="#cdffff"/>
<stop offset="1" stop-color="#0c5d7d" stop-opacity=".906"/>
</radialGradient>
</defs>
<g transform="matrix(.72657 0 0 .72657 6.95377 2.05384)">
<path stroke-opacity=".99" fill="url(#radialGradient88)" stroke="#0c5d7d" stroke-width="4.036" d="m35.399,39.1321h241.82l100,98.8519v410.214h-341.82v-509.0659z" transform="matrix(.27875 0 0 .28489 29.8322 1.63322)"/>
<path stroke-opacity=".82" fill="#fff" stroke="#2ea6b9" fill-opacity=".699" stroke-width="8.969" d="m23.9471,20.1241h241.8199l100,99.9999v414.979h-341.8199l0-514.9789z" transform="matrix(.27875 0 0 .27875 29.8322 3.74844)"/>
<path fill="url(#2)" d="m276.767,133.124l89-13-100-99.9999" transform="matrix(.27875 0 0 .27875 29.8322 3.74844)"/>
<path stroke-opacity=".91" fill="url(#linearGradient89)" stroke="#2ea6b9" stroke-width="6.726" d="m265.767,120.124h100l-100-99.9999v99.9999" transform="matrix(.27875 0 0 .27875 29.8322 3.74844)"/>
</g>
<g transform="matrix(.76737 0 0 .76737 40.7955 31.4513)">
<path stroke-opacity=".99" fill="url(#radialGradient88)" stroke="#0c5d7d" stroke-width="4.036" d="m35.399,39.1321h241.82l100,98.8519v410.214h-341.82v-509.0659z" transform="matrix(.27875 0 0 .28489 29.8322 1.63322)"/>
<path stroke-opacity=".82" fill="#fff" stroke="#2ea6b9" fill-opacity=".699" stroke-width="8.969" d="m23.9471,20.1241h241.8199l100,99.9999v414.979h-341.8199l0-514.9789z" transform="matrix(.27875 0 0 .27875 29.8322 3.74844)"/>
<path fill="url(#2)" d="m276.767,133.124l89-13-100-99.9999" transform="matrix(.27875 0 0 .27875 29.8322 3.74844)"/>
<path stroke-opacity=".91" fill="url(#linearGradient89)" stroke="#2ea6b9" stroke-width="6.726" d="m265.767,120.124h100l-100-99.9999v99.9999" transform="matrix(.27875 0 0 .27875 29.8322 3.74844)"/>
</g>
</svg>

<?xml version="1.0" standalone="no"?>
<!DOCTYPE svg PUBLIC "-//W3C//DTD SVG 20010904//EN"
"http://www.w3.org/TR/2001/REC-SVG-20010904/DTD/svg10.dtd"
[
 <!ATTLIST svg
  xmlns:xlink CDATA #FIXED "http://www.w3.org/1999/xlink">
]>
<!-- Created with Sodipodi ("http://www.sodipodi.com/") -->
<svg
   width="128pt"
   height="128pt"
   id="svg1"
   sodipodi:version="0.27"
   sodipodi:docname="/mnt/windows/themes/Work/Blue-Sphere/editcopy.svg"
   sodipodi:docbase="/mnt/windows/themes/Work/Blue-Sphere/"
   xmlns="http://www.w3.org/2000/svg"
   xmlns:sodipodi="http://sodipodi.sourceforge.net/DTD/sodipodi-0.dtd"
   xmlns:xlink="http://www.w3.org/1999/xlink">
  <defs
     id="defs22">
    <linearGradient
       id="linearGradient168">
      <stop
         offset="0.000000"
         style="stop-color:#cdffff;stop-opacity:1;"
         id="stop169" />
      <stop
         offset="1.000000"
         style="stop-color:#0c5d7d;stop-opacity:0.905882;"
         id="stop170" />
    </linearGradient>
    <linearGradient
       id="linearGradient90">
      <stop
         offset="0.000000"
         style="stop-color:#cdffff;stop-opacity:1;"
         id="stop91" />
      <stop
         offset="1.000000"
         style="stop-color:#006b97;stop-opacity:0.905882;"
         id="stop92" />
    </linearGradient>
    <linearGradient
       id="linearGradient67">
      <stop
         offset="0.000000"
         style="stop-color:#d7ffff;stop-opacity:0.898039;"
         id="stop70" />
      <stop
         offset="1.000000"
         style="stop-color:#2ea6b9;stop-opacity:0.952941;"
         id="stop69" />
    </linearGradient>
    <linearGradient
       id="linearGradient57">
      <stop
         offset="0.000000"
         style="stop-color:#ffffff;stop-opacity:1;"
         id="stop59" />
      <stop
         offset="1.000000"
         style="stop-color:#797979;stop-opacity:1;"
         id="stop58" />
    </linearGradient>
    <defs
       id="defs4">
      <radialGradient
         id="1"
         cx="869.603027"
         cy="1973.579956"
         r="2106.649902"
         fx="869.603027"
         fy="1973.579956"
         gradientUnits="userSpaceOnUse"
         xlink:href="#linearGradient67" />
    </defs>
    <defs
       id="defs11">
      <linearGradient
         id="2"
         x1="255.848"
         y1="119.147"
         x2="375.686"
         y2="34.1009"
         gradientUnits="userSpaceOnUse">
        <stop
           offset="0"
           style="stop-color:#ffffff"
           id="stop13" />
        <stop
           offset="1"
           style="stop-color:#000000"
           id="stop14" />
      </linearGradient>
    </defs>
    <defs
       id="defs16">
      <linearGradient
         id="3"
         x1="275.053009"
         y1="109.384003"
         x2="356.480988"
         y2="30.864300"
         gradientUnits="userSpaceOnUse"
         xlink:href="#linearGradient57" />
    </defs>
    <radialGradient
       cx="3.03981e-14"
       cy="1.05578e-10"
       r="0.773346"
       fx="3.03981e-14"
       fy="1.05578e-10"
       xlink:href="#linearGradient168"
       id="radialGradient88"
       gradientUnits="objectBoundingBox"
       gradientTransform="matrix(0.945877,0,0,1.05722,0.264368,0.249996)"
       spreadMethod="pad" />
    <linearGradient
       x1="2.69643"
       y1="1.14655"
       x2="3.85147"
       y2="0.623116"
       xlink:href="#linearGradient67"
       id="linearGradient89"
       gradientUnits="objectBoundingBox"
       gradientTransform="translate(-2.65767,-0.201241)"
       spreadMethod="pad" />
  </defs>
  <sodipodi:namedview
     id="base" />
  <g
     id="g1755"
     transform="matrix(0.726574,0,0,0.726574,6.95377,2.05384)">
    <path
       style="font-size:12;fill:url(#radialGradient88);stroke:#0c5d7d;stroke-opacity:0.99;stroke-width:4.03585;"
       d="M 35.399 39.1321L 277.219 39.1321L 377.219 137.984L 377.219 548.198L 35.399 548.198L 35.399 39.1321z"
       id="path1756"
       transform="matrix(0.278752,0,0,0.284891,29.8322,1.63322)" />
    <path
       style="font-size:12;fill:#ffffff;fill-opacity:0.699301;stroke:#2ea6b9;stroke-width:8.96855;stroke-opacity:0.82;"
       d="M 23.9471 20.1241L 265.767 20.1241L 365.767 120.124L 365.767 535.103L 23.9471 535.103L 23.9471 20.1241z"
       id="path1757"
       transform="matrix(0.278752,0,0,0.278752,29.8322,3.74844)" />
    <path
       style="font-size:12;fill:url(#2);"
       d="M 276.767 133.124L 365.767 120.124L 265.767 20.1241"
       id="path1758"
       transform="matrix(0.278752,0,0,0.278752,29.8322,3.74844)" />
    <path
       style="font-size:12;fill:url(#linearGradient89);stroke:#2ea6b9;stroke-width:6.72641;stroke-opacity:0.91;"
       d="M 265.767 120.124L 365.767 120.124L 265.767 20.1241L 265.767 120.124"
       id="path1759"
       transform="matrix(0.278752,0,0,0.278752,29.8322,3.74844)" />
  </g>
  <g
     id="g1760"
     transform="matrix(0.767374,0,0,0.767374,40.7955,31.4513)">
    <path
       style="font-size:12;fill:url(#radialGradient88);stroke:#0c5d7d;stroke-opacity:0.99;stroke-width:4.03585;"
       d="M 35.399 39.1321L 277.219 39.1321L 377.219 137.984L 377.219 548.198L 35.399 548.198L 35.399 39.1321z"
       id="path1761"
       transform="matrix(0.278752,0,0,0.284891,29.8322,1.63322)" />
    <path
       style="font-size:12;fill:#ffffff;fill-opacity:0.699301;stroke:#2ea6b9;stroke-width:8.96855;stroke-opacity:0.82;"
       d="M 23.9471 20.1241L 265.767 20.1241L 365.767 120.124L 365.767 535.103L 23.9471 535.103L 23.9471 20.1241z"
       id="path1762"
       transform="matrix(0.278752,0,0,0.278752,29.8322,3.74844)" />
    <path
       style="font-size:12;fill:url(#2);"
       d="M 276.767 133.124L 365.767 120.124L 265.767 20.1241"
       id="path1763"
       transform="matrix(0.278752,0,0,0.278752,29.8322,3.74844)" />
    <path
       style="font-size:12;fill:url(#linearGradient89);stroke:#2ea6b9;stroke-width:6.72641;stroke-opacity:0.91;"
       d="M 265.767 120.124L 365.767 120.124L 265.767 20.1241L 265.767 120.124"
       id="path1764"
       transform="matrix(0.278752,0,0,0.278752,29.8322,3.74844)" />
  </g>
</svg>
